X:289
L:1/8
M:4/4
K:D
 dB | A^GAF DFAc | dcec A2 F2 | GGBG FFAF | FEGE DCB,A, | A2 AF DFAc | dcec Acef | gffe eddc | 
 d2 f2 d2 || cd | edec Acef | gfaf d2 cd | BdAd BdAd | Bgfe dcdB | AGAF DFAc | dcec Acef | 
 gffe eddc | d2 f2 d2 ||

